X: 1
T: Visa fr\aan Venjan
O: Dalarna
M: 3/4
L: 1/4
K: Em
D \
| E2 D | E2 D | G G F | HG2 B \
| d2 c | B> A G | A2 B | G2 :|
|: B \
| B2 B | d2 B | B> A E | A2 G \
| B A G | D E F | G G F | E2 :|2 E2 |]
